X: 13034
T: Finbarr Dwyer's
R: jig
M: 6/8
K: Dmixolydian
|:dAd dAd|dAd fdB|cGc cGc|c'af g2 e|
dAd dAd|dAd fdA|F/G/AF GEA|FdD D3:|
|:aba fdf|aba agf|geg c'2 a|gec efg|
aAA ge^c|~d3 fdA|F/G/AF GEA|FdD D3:|

